X:1
T:Title
%%score 1 2
L:1/8
Q:1/4=127
M:3/4
K:D
V:1 treble nm="Grand Piano, Soprano"
V:2 bass nm="Choir Pad, Bass"
V:1
 [DF]2 [DF]2 [EG]2 | [FA]2 [Fd]2 [Fc]2 | [Fd]2 [Gc]2 [GB]2- | [GB][GB] [FA]2 [FB]2 | %4
w: By~Charles~Reeves * *||||
 [FA]2 [DF]2 E2 | D2 [CE]4 | [CF][CG] [FA]2 [FB]2 | [FA]2 [Fd]4 | [Ac][Ac] [GB]2 ^A2 | %9
w: |||||
 [GB]2 [Ge]4 | [Gd]>[GB] [DA]2 [DB]2 | [FA]2 [CF]2 [CG]2 | [CE]2 D4 | [CE]2 [CE]2 ^D2 | %14
w: |||||
 [CE]2 [Ec]2 [EB]2 | [EA]2 [EA]2 [DE^G]2- | [DEG][DE] [DE]2 [DF]2 | [DE]2 [D^G]2 [CA]2 | %18
w: ||||
 [EB]2 [Ec]4 | [Ec][Ec] [Ec]2 [EB]2 | [Ec]2 [CA]4 | [CA]2 [CA]2 [EB]2 | [Ec]2 [Fd]4 | %23
w: |||||
 [Fd]2 [Ec]2 [Fd]2 | [Ec]2 [DB]2 [DF]2 | [D^G]2 [CA]4 | [GA]2 [FA]2 [FB]2 | [FA]2 [Fd]2 [Fc]2 | %28
w: |||||
 [Fd]2 [Gc]2 [GB]2- | [GB][GB] [FA]2 [GB]2 | [FA]2 [DF]2 E2 | D2 [CE]4 | [CF][CG] [FA]2 [FB]2 | %33
w: |||||
 [FA]2 [Fd]4 | [Ac][Ac] [GB]2 ^A2 | [GB]2 [Ge]4 | [Gd]>[GB] [DA]2 [DB]2 | [FA]2 [CF]2 [CG]2 | %38
w: |||||
 [CE]2 D4- | D4 z2 |] %40
w: ||
V:2
 [D,A,]2 [D,A,]2 [D,A,]2 | [D,A,]2 [F,A,]2 [F,A,]2 | [D,D]2 [G,D]2 [G,D]2- | %3
 [G,D][G,D] [D,D]2 [D,D]2 | [D,D]2 [D,A,]2 [C,A,]2 | [B,,^G,]2 [A,,A,]4 | %6
 [A,,A,][A,,A,] [D,A,]2 [D,A,]2 | [D,A,]2 [D,A,]4 | [F,A,][F,A,] [A,D]2 [G,D]2 | [G,D]2 [G,B,]4 | %10
 [G,B,]>G, [F,A,]2 [F,A,]2 | [D,A,]2 [A,,A,]2 [A,,A,]2 | [A,,A,]2 [D,F,]4 | %13
 [A,,A,]2 [A,,A,]2 [A,,A,]2 | [A,,A,]2 [A,,A,]2 [B,,^G,]2 | [B,,A,]2 [E,A,]2 [E,A,]2- | %16
 [E,A,][E,^G,] [E,G,]2 [E,A,]2 | [E,^G,]2 [E,B,]2 [F,A,]2 | ^G,2 A,4 | A,A, A,2 A,2 | A,2 A,4 | %21
 A,2 A,2 ^G,2 | [G,A,]2 [F,A,]4 | [B,,B,]2 [E,A,]2 [E,A,]2 | [E,A,]2 [E,^G,]2 [D,A,]2 | %25
 [E,B,]2 [A,,A,]4 | [C,A,]2 [D,A,]2 [D,A,]2 | [D,A,]2 [F,A,]2 [F,A,]2 | [D,D]2 [G,D]2 [G,D]2- | %29
 [G,D][G,D] [D,D]2 [D,D]2 | [D,D]2 [D,A,]2 [C,A,]2 | [B,,^G,]2 [A,,A,]4 | %32
 [A,,A,][A,,A,] [D,A,]2 [D,A,]2 | [D,A,]2 [D,A,]4 | [F,A,][F,A,] [G,D]2 [G,C]2 | [G,D]2 [G,B,]4 | %36
 [G,B,]>G, [F,A,]2 [F,A,]2 | [D,A,]2 [A,,A,]2 [A,,A,]2 | [A,,G,]2 [D,F,]4- | [D,F,]4 z2 |] %40

